other/antiyoy.svg

<?xml version="1.0" encoding="UTF-8" standalone="no"?>
<svg
   xmlns:dc="http://purl.org/dc/elements/1.1/"
   xmlns:cc="http://creativecommons.org/ns#"
   xmlns:rdf="http://www.w3.org/1999/02/22-rdf-syntax-ns#"
   xmlns:svg="http://www.w3.org/2000/svg"
   xmlns="http://www.w3.org/2000/svg"
   xmlns:sodipodi="http://sodipodi.sourceforge.net/DTD/sodipodi-0.dtd"
   xmlns:inkscape="http://www.inkscape.org/namespaces/inkscape"
   viewBox="0 0 48 48"
   version="1.1"
   id="svg2289"
   sodipodi:docname="antiyoy.svg"
   inkscape:version="1.0.1 (3bc2e813f5, 2020-09-07)">
  <metadata
     id="metadata2293">
    <rdf:RDF>
      <cc:Work
         rdf:about="">
        <dc:format>image/svg+xml</dc:format>
        <dc:type
           rdf:resource="http://purl.org/dc/dcmitype/StillImage" />
        <dc:title />
      </cc:Work>
    </rdf:RDF>
  </metadata>
  <sodipodi:namedview
     pagecolor="#5a5a5a"
     bordercolor="#666666"
     borderopacity="1"
     objecttolerance="10"
     gridtolerance="10"
     guidetolerance="10"
     inkscape:pageopacity="0"
     inkscape:pageshadow="2"
     inkscape:window-width="3840"
     inkscape:window-height="2096"
     id="namedview2291"
     showgrid="false"
     inkscape:zoom="50.661983"
     inkscape:cx="23.999556"
     inkscape:cy="24"
     inkscape:window-x="0"
     inkscape:window-y="27"
     inkscape:window-maximized="1"
     inkscape:current-layer="svg2289"
     inkscape:document-rotation="0" />
  <defs
     id="defs2285">
    <style
       id="style2283">.a{fill:none;stroke:#fff;stroke-linecap:round;stroke-linejoin:round;}</style>
  </defs>
  <path
     class="a"
     d="M40.5,5.5H7.5a2,2,0,0,0-2,2v33a2,2,0,0,0,2,2h33a2,2,0,0,0,2-2V7.5A2,2,0,0,0,40.5,5.5Z"
     id="path2287"
     style="stroke-width:1;stroke-miterlimit:4;stroke-dasharray:none;stroke-linejoin:round;stroke-linecap:round" />
  <path
     style="fill:none;stroke:#ffffff;stroke-width:1;stroke-linecap:round;stroke-linejoin:round;stroke-miterlimit:4;stroke-dasharray:none;stroke-opacity:1"
     d="m 26.250597,42.502064 0.860044,-1.495998 h 3.24652 L 31.938073,38.267847 30.458494,35.70514 H 27.235316 L 25.59517,32.864325 h -3.134475 l -1.538911,-2.665472 1.597135,-2.766319 h 3.150019 l 1.664825,-2.883561 -1.573047,-2.724598 1.429617,-2.47617 h 3.300528 l 1.7572,-3.043559 h 2.838769 l 1.622176,2.809691 h 3.266915 l 1.553762,-2.691194 h 0.969139"
     id="path2651"
     sodipodi:nodetypes="ccccccccccccccccccccc" />
  <path
     style="fill:none;stroke:#ffffff;stroke-width:1;stroke-linecap:round;stroke-linejoin:round;stroke-miterlimit:4;stroke-dasharray:none;stroke-opacity:1"
     d="M 32.248061,16.304646 30.609608,13.466763 H 27.099482 L 25.498332,10.69349 27.108909,7.9038895 25.725312,5.5071125"
     id="path2653"
     sodipodi:nodetypes="cccccc" />
  <path
     style="fill:none;stroke:#ffffff;stroke-width:1;stroke-linecap:round;stroke-linejoin:round;stroke-opacity:1;stroke-miterlimit:4;stroke-dasharray:none"
     d="m 27.190333,19.348205 -1.613437,-2.794554 h -3.003424 l -1.768403,-3.062966 1.644211,-2.847858 3.049052,0.05066"
     id="path2655" />
  <path
     style="fill:none;stroke:#ffffff;stroke-width:1;stroke-linecap:round;stroke-linejoin:round;stroke-miterlimit:4;stroke-dasharray:none;stroke-opacity:1"
     d="M 25.760716,21.824375 H 22.37441 l -1.683304,2.915568 H 17.765398 L 16.143703,27.5488 h -3.156187 l -1.565769,2.711991 H 8.034791 l -2.5363412,4.425676"
     id="path2657"
     sodipodi:nodetypes="ccccccccc" />
  <path
     style="fill:none;stroke:#ffffff;stroke-width:1;stroke-linecap:round;stroke-linejoin:round;stroke-miterlimit:4;stroke-dasharray:none;stroke-opacity:1"
     d="m 20.805069,13.490685 h -2.834486 l -1.692544,2.931571 H 12.8818 l -1.658635,2.872839 H 7.6040444 l -2.1028387,3.685722"
     id="path2659"
     sodipodi:nodetypes="ccccccc" />
  <path
     style="fill:none;stroke:#ffffff;stroke-width:1;stroke-linecap:round;stroke-linejoin:round;stroke-opacity:1;stroke-miterlimit:4;stroke-dasharray:none"
     d="M 7.6040444,19.295095 5.8276575,16.218303 7.7805772,13.763428 5.8904584,10.725506"
     id="path2661"
     sodipodi:nodetypes="cccc" />
  <path
     style="fill:none;stroke:#ffffff;stroke-width:1;stroke-linecap:round;stroke-linejoin:round;stroke-opacity:1;stroke-miterlimit:4;stroke-dasharray:none"
     d="M 22.518919,27.432534 20.691106,24.739943"
     id="path2663" />
  <path
     style="fill:none;stroke:#ffffff;stroke-width:1;stroke-linecap:round;stroke-linejoin:round;stroke-miterlimit:4;stroke-dasharray:none;stroke-opacity:1"
     d="M 22.44928,10.642827 20.908721,7.9745005 H 17.871058 L 16.054575,11.120743 H 12.932517 L 11.223239,8.1601861 12.76223,5.5048586"
     id="path2665"
     sodipodi:nodetypes="ccccccc" />
  <path
     style="fill:none;stroke:#ffffff;stroke-width:1;stroke-linecap:round;stroke-linejoin:round;stroke-opacity:1;stroke-miterlimit:4;stroke-dasharray:none"
     d="M 11.223239,8.1601861 H 8.1086137 L 5.8904584,10.725506"
     id="path2667" />
</svg>

<svg xmlns="http://www.w3.org/2000/svg" viewBox="0 0 48 48"><defs><style>.a{fill:none;stroke:#fff;stroke-linecap:round;stroke-linejoin:round;}</style></defs><path class="a" d="M40.5,5.5H7.5a2,2,0,0,0-2,2v33a2,2,0,0,0,2,2h33a2,2,0,0,0,2-2V7.5A2,2,0,0,0,40.5,5.5Z"/><path class="a" d="M26.27,42.5,27.11,41h3.25l1.58-2.74-1.48-2.56H27.24L25.6,32.86H22.46L20.92,30.2l1.6-2.77h3.15l1.66-2.88-1.57-2.73,1.43-2.47h3.3l1.76-3.05h2.84l1.62,2.81H40l1.55-2.69h1"/><path class="a" d="M32.25,16.3l-1.64-2.83H27.1l-1.6-2.78L27.11,7.9,25.76,5.5"/><path class="a" d="M27.19,19.35l-1.61-2.8h-3l-1.76-3.06,1.64-2.85,3.05,0"/><path class="a" d="M25.76,21.82H22.37l-1.68,2.92H17.77l-1.63,2.81H13l-1.57,2.71H8L5.5,34.69"/><path class="a" d="M20.81,13.49H18l-1.69,2.93h-3.4L11.22,19.3H7.6L5.5,23"/><path class="a" d="M7.6,19.3,5.83,16.22l2-2.46-1.89-3"/><path class="a" d="M22.52,27.43l-1.83-2.69"/><path class="a" d="M22.45,10.64,20.91,8h-3l-1.82,3.15H12.93l-1.71-3,1.5-2.66"/><path class="a" d="M11.22,8.16H8.11L5.89,10.73"/></svg>
